icons/1_Primary/Wikipedia.svg

<svg width="1024" height="1024" viewBox="0 0 1024 1024" fill="none" xmlns="http://www.w3.org/2000/svg">
<g clip-path="url(#clip0_2_3933)">
<path d="M512 1024C794.77 1024 1024 794.77 1024 512C1024 229.23 794.77 0 512 0C229.23 0 0 229.23 0 512C0 794.77 229.23 1024 512 1024Z" fill="#A0A5AF"/>
<path d="M766.999 371H661.199L659.899 371.9V381.2C659.899 382.3 660.399 383.2 661.399 383.9C662.399 384.6 663.399 385 664.499 385L673.299 385.4C684.199 385.8 687.099 388 691.299 391.6C695.499 395.3 695.999 401.7 692.699 410.7L598.999 633L595.399 632L535.899 510.3C536.799 508.5 537.299 507.4 537.299 507.4L585.999 416.4C591.699 406.8 597.099 398.2 599.899 394.2C604.999 386.9 607.799 385.5 621.699 384.9C624.499 384.9 625.999 383.6 625.999 381.1V372L624.899 371C624.899 371 565.399 370.8 538.899 371L537.599 371.9V381.1C537.599 382.2 538.099 383.1 538.999 383.8C539.999 384.5 540.999 384.9 542.099 384.9L546.399 385.4C557.199 385.8 562.199 388.7 563.699 390.5C566.299 393.7 567.599 397.1 561.299 410.7L523.899 485.4L490.099 416.2C478.999 394.1 476.299 387.2 492.999 385.9L499.599 385C502.799 385 504.399 383.9 504.399 381.7V372L501.999 371.2H410.699L409.399 372.1V381.8C409.399 384 411.699 384.5 416.099 385.1C431.799 387.2 431.399 388.8 446.899 419.5C449.199 424.1 455.999 438 455.999 438L491.299 507.3C491.299 507.3 495.299 516.2 501.599 530L450.299 632.3L447.399 631.5C447.399 631.5 367.799 463.6 344.699 407.5C342.299 401.7 341.199 397.4 341.199 394.7C341.199 389 346.299 385.9 356.599 385.5L368.599 385C371.799 385 373.399 383.8 373.399 381.2V372L372.299 371.1C372.299 371.1 276.999 371 257.299 371.1L256.199 372V381.7C256.199 383.4 258.399 384.5 262.899 385C274.999 385.7 282.999 387.6 286.799 390.8C290.599 394.1 294.599 402.3 299.999 415.1C328.899 484.6 390.399 608.7 420.399 679.3C428.999 698.6 439.899 701.6 452.999 678.7C466.499 653.6 493.799 597.9 513.799 556.8C532.399 597.8 557.799 653.3 569.999 678.5C579.799 698.6 590.899 700.6 602.099 679.1C631.599 613.6 717.699 416.4 717.699 416.4C721.399 406.7 726.599 399.3 733.299 393.9C739.999 388.5 750.199 385.5 764.099 384.9C766.899 384.9 768.399 383.6 768.399 381.1V372L766.999 371Z" fill="white"/>
</g>
<defs>
<clipPath id="clip0_2_3933">
<rect width="1024" height="1024" fill="white"/>
</clipPath>
</defs>
</svg>

<svg width="1024" height="1024" fill="none" xmlns="http://www.w3.org/2000/svg"><g clip-path="url(#a)"><path d="M512 1024c282.77 0 512-229.23 512-512S794.77 0 512 0 0 229.23 0 512s229.23 512 512 512Z" fill="#A0A5AF"/><path d="M766.999 371h-105.8l-1.3.9v9.3c0 1.1.5 2 1.5 2.7 1 .7 2 1.1 3.1 1.1l8.8.4c10.9.4 13.8 2.6 18 6.2 4.2 3.7 4.7 10.1 1.4 19.1l-93.7 222.3-3.6-1-59.5-121.7c.9-1.8 1.4-2.9 1.4-2.9l48.7-91c5.7-9.6 11.1-18.2 13.9-22.2 5.1-7.3 7.9-8.7 21.8-9.3 2.8 0 4.3-1.3 4.3-3.8V372l-1.1-1s-59.5-.2-86 0l-1.3.9v9.2c0 1.1.5 2 1.4 2.7 1 .7 2 1.1 3.1 1.1l4.3.5c10.8.4 15.8 3.3 17.3 5.1 2.6 3.2 3.9 6.6-2.4 20.2l-37.4 74.7-33.8-69.2c-11.1-22.1-13.8-29 2.9-30.3l6.6-.9c3.2 0 4.8-1.1 4.8-3.3V372l-2.4-.8h-91.3l-1.3.9v9.7c0 2.2 2.3 2.7 6.7 3.3 15.7 2.1 15.3 3.7 30.8 34.4 2.3 4.6 9.1 18.5 9.1 18.5l35.3 69.3s4 8.9 10.3 22.7l-51.3 102.3-2.9-.8s-79.6-167.9-102.7-224c-2.4-5.8-3.5-10.1-3.5-12.8 0-5.7 5.1-8.8 15.4-9.2l12-.5c3.2 0 4.8-1.2 4.8-3.8V372l-1.1-.9s-95.3-.1-115 0l-1.1.9v9.7c0 1.7 2.2 2.8 6.7 3.3 12.1.7 20.1 2.6 23.9 5.8 3.8 3.3 7.8 11.5 13.2 24.3 28.9 69.5 90.4 193.6 120.4 264.2 8.6 19.3 19.5 22.3 32.6-.6 13.5-25.1 40.8-80.8 60.8-121.9 18.6 41 44 96.5 56.2 121.7 9.8 20.1 20.9 22.1 32.1.6 29.5-65.5 115.6-262.7 115.6-262.7 3.7-9.7 8.9-17.1 15.6-22.5 6.7-5.4 16.9-8.4 30.8-9 2.8 0 4.3-1.3 4.3-3.8V372l-1.4-1Z" fill="#fff"/></g><defs><clipPath id="a"><path fill="#fff" d="M0 0h1024v1024H0z"/></clipPath></defs></svg>
